X:260
T:Pinch of Snuff
R:reel
Z:
Z:Transcribed by Dave Marshall
M:C|
K:Dmix
|: afge ~d3c | AD (3DDD EFGB | A^GAB ~c3d | ed^cd efge :|
| f2df afdf | ~f2df efge | f2df afdf | ed (3B^cd efge |
f2df afdf | ~f2df efge | f~d3 dfaf | ed^cd efge |
